img/github_white.svg

<?xml version="1.0" encoding="UTF-8" standalone="no"?>
<svg width="32px" height="32px" viewBox="0 0 32 32" version="1.1" xmlns="http://www.w3.org/2000/svg" xmlns:xlink="http://www.w3.org/1999/xlink" xmlns:sketch="http://www.bohemiancoding.com/sketch/ns">
    <!-- Generator: Sketch 3.0.4 (8053) - http://www.bohemiancoding.com/sketch -->
    <title>github_white</title>
    <desc>Created with Sketch.</desc>
    <defs></defs>
    <g id="Social" stroke="none" stroke-width="1" fill="none" fill-rule="evenodd" sketch:type="MSPage">
        <g id="github_white" sketch:type="MSArtboardGroup" fill="#FFFFFF">
            <path d="M16.0001325,0 C7.16466156,0 0,7.34463171 0,16.4050754 C0,23.6532674 4.58452494,29.8025899 10.9418671,31.9718045 C11.7415028,32.1236631 12.0350735,31.6159283 12.0350735,31.1826287 C12.0350735,30.7914366 12.020236,29.4991444 12.0133471,28.1283421 C7.5620948,29.1207204 6.62282757,26.1927561 6.62282757,26.1927561 C5.89499483,24.2965611 4.84630097,23.7923579 4.84630097,23.7923579 C3.39460981,22.7741718 4.95572759,22.7950897 4.95572759,22.7950897 C6.56241772,22.9108174 7.40842062,24.4856373 7.40842062,24.4856373 C8.83547092,26.9936133 11.1514469,26.2685496 12.0644835,25.8493764 C12.2080894,24.7890828 12.6227448,24.0653774 13.0803229,23.6557124 C9.52647485,23.2408857 5.79060236,21.8342242 5.79060236,15.5482561 C5.79060236,13.7571939 6.41563237,12.2937551 7.43915545,11.1449 C7.27302836,10.7317033 6.72536535,9.06316034 7.59415442,6.80348263 C7.59415442,6.80348263 8.93774374,6.36257653 11.9953302,8.48506535 C13.2716208,8.12158269 14.6403809,7.93929803 16.0001325,7.93304983 C17.3598841,7.93929803 18.729704,8.12158269 20.0083792,8.48506535 C23.0622563,6.36257653 24.4039909,6.80348263 24.4039909,6.80348263 C25.2748996,9.06316034 24.7269716,10.7317033 24.5608445,11.1449 C25.5867522,12.2937551 26.207543,13.7571939 26.207543,15.5482561 C26.207543,21.8491655 22.4645167,23.2365392 18.9016601,23.6426726 C19.4755537,24.1517657 19.9869178,25.1501205 19.9869178,26.6806596 C19.9869178,28.875682 19.9683709,30.6422946 19.9683709,31.1826287 C19.9683709,31.6191883 20.2563776,32.1307263 21.0674063,31.9696312 C27.4213041,29.7979717 32,23.6508225 32,16.4050754 C32,7.34463171 24.8363983,0 16.0001325,0" id="Fill-4" sketch:type="MSShapeGroup"></path>
        </g>
    </g>
</svg>

<svg viewBox="0 0 32 32" xmlns="http://www.w3.org/2000/svg"><g fill="none" fill-rule="evenodd"><path d="m16 0c-8.835 0-16 7.345-16 16.405 0 7.248 4.585 13.398 10.942 15.567.8.152 1.093-.356 1.093-.789 0-.391-.015-1.683-.022-3.054-4.451.992-5.391-1.936-5.391-1.936-.728-1.896-1.777-2.4-1.777-2.4-1.452-1.018.109-.997.109-.997 1.607.116 2.453 1.691 2.453 1.691 1.427 2.508 3.743 1.783 4.656 1.364.144-1.06.558-1.784 1.016-2.194-3.554-.415-7.29-1.821-7.29-8.107 0-1.791.625-3.255 1.649-4.403-.166-.413-.714-2.082.155-4.341 0 0 1.344-.441 4.401 1.682 1.276-.363 2.645-.546 4-.552 1.36.006 2.73.189 4.01.552 3.054-2.122 4.396-1.682 4.396-1.682.871 2.26.323 3.928.157 4.341 1.026 1.149 1.647 2.612 1.647 4.403 0 6.301-3.743 7.688-7.306 8.094.574.509 1.085 1.507 1.085 3.038 0 2.195-.019 3.962-.019 4.502 0 .437.288.948 1.099.787 6.354-2.172 10.933-8.319 10.933-15.565 0-9.06-7.164-16.405-16-16.405" fill="#fff"/></g></svg>
